flaticon/coffee-shop/coffee-cup-1.svg

<svg xmlns="http://www.w3.org/2000/svg" width="32" height="32" viewBox="0 0 24 24">
    <path d="M21.414062 20.691406L16.367188 20.691406C17.652344 20.175781 18.636719 19.445312 19.386719 18.5625 22.445312 18.097656 23.8125 15.570312 23.8125 13.242188 23.8125 11.589844 22.894531 10.210938 21.703125 9.96875 21.703125 9.957031 21.703125 9.945312 21.703125 9.929688 21.703125 9.722656 21.621094 9.515625 21.457031 9.351562 21.289062 9.1875 21.082031 9.101562 20.875 9.101562L1.839844 9.101562C1.632812 9.101562 1.425781 9.1875 1.261719 9.351562 1.097656 9.515625 1.015625 9.722656 1.015625 9.929688 1.046875 14.382812 1.820312 18.882812 6.347656 20.691406L1.261719 20.691406C.683594 20.691406.1875 21.144531.1875 21.765625.1875 22.261719.515625 22.632812 1.097656 22.757812L6.351562 23.132812C6.476562 23.132812 6.601562 23.214844 6.640625 23.339844 6.847656 23.75 7.261719 24 7.71875 24L14.585938 24C15.042969 24 15.457031 23.75 15.621094 23.339844 15.660156 23.214844 15.785156 23.132812 15.910156 23.132812L21.539062 22.757812 21.578125 22.757812C22.160156 22.632812 22.488281 22.261719 22.488281 21.765625 22.488281 21.1875 22.035156 20.691406 21.414062 20.691406zM21.703125 10.839844C22.40625 11.089844 22.945312 12.082031 22.945312 13.242188 22.945312 14.855469 22.199219 16.796875 20.136719 17.5 20.171875 17.441406 20.203125 17.382812 20.238281 17.324219 21.386719 15.332031 21.625 12.929688 21.703125 10.839844zM1.839844 9.929688L20.875 9.929688C20.835938 15.515625 19.632812 20.691406 11.359375 20.691406 3.082031 20.691406 1.882812 15.515625 1.839844 9.929688zM21.496094 21.929688L15.953125 22.304688C15.539062 22.34375 15.164062 22.59375 14.957031 22.964844 14.875 23.089844 14.75 23.171875 14.628906 23.171875L7.71875 23.171875C7.59375 23.171875 7.46875 23.089844 7.386719 22.964844 7.179688 22.59375 6.808594 22.34375 6.394531 22.304688L1.222656 21.929688C1.015625 21.890625 1.015625 21.808594 1.015625 21.765625 1.015625 21.640625 1.136719 21.515625 1.261719 21.515625L21.457031 21.515625C21.578125 21.515625 21.703125 21.640625 21.703125 21.765625 21.703125 21.808594 21.703125 21.890625 21.496094 21.929688zM11.070312 3.433594C10.449219 4.054688 10.117188 4.675781 10.117188 5.339844 10.117188 6 10.449219 6.660156 11.070312 7.324219 11.152344 7.40625 11.234375 7.449219 11.359375 7.449219 11.484375 7.449219 11.566406 7.40625 11.648438 7.324219 11.8125 7.160156 11.8125 6.910156 11.648438 6.746094 11.191406 6.25 10.945312 5.792969 10.945312 5.335938 10.945312 4.882812 11.191406 4.425781 11.648438 4.015625 12.269531 3.433594 12.601562 2.773438 12.601562 2.109375 12.601562 1.449219 12.308594.746094 11.648438.125 11.484375-.0429688 11.234375-.0429688 11.070312.125 10.902344.289062 10.902344.539062 11.070312.703125 11.523438 1.199219 11.773438 1.65625 11.773438 2.109375 11.773438 2.566406 11.523438 3.019531 11.070312 3.433594zM14.667969 5.339844C14.667969 6 15 6.660156 15.621094 7.324219 15.703125 7.40625 15.785156 7.449219 15.910156 7.449219 15.992188 7.449219 16.117188 7.40625 16.160156 7.324219 16.324219 7.160156 16.324219 6.910156 16.160156 6.746094 15.703125 6.25 15.457031 5.792969 15.457031 5.335938 15.457031 4.882812 15.703125 4.425781 16.160156 4.015625 16.820312 3.433594 17.152344 2.773438 17.152344 2.109375 17.152344 1.40625 16.863281.746094 16.199219.125 16.035156-.0429688 15.785156-.0429688 15.621094.125 15.457031.289062 15.457031.539062 15.621094.703125 16.074219 1.199219 16.324219 1.65625 16.324219 2.109375 16.324219 2.566406 16.074219 2.980469 15.621094 3.433594 15 4.054688 14.667969 4.675781 14.667969 5.339844zM5.980469 5.339844C5.980469 6 6.308594 6.660156 6.929688 7.324219 7.015625 7.40625 7.097656 7.449219 7.21875 7.449219 7.304688 7.449219 7.425781 7.40625 7.46875 7.324219 7.632812 7.160156 7.632812 6.910156 7.46875 6.746094 7.015625 6.25 6.765625 5.792969 6.765625 5.335938 6.765625 4.882812 7.015625 4.425781 7.46875 4.015625 8.132812 3.433594 8.460938 2.773438 8.460938 2.109375 8.460938 1.40625 8.171875.746094 7.511719.125 7.34375-.0429688 7.097656-.0429688 6.929688.125 6.765625.289062 6.765625.539062 6.929688.703125 7.386719 1.199219 7.632812 1.65625 7.632812 2.109375 7.632812 2.566406 7.386719 2.980469 6.929688 3.433594 6.308594 4.054688 5.980469 4.675781 5.980469 5.339844zM5.980469 5.339844"/>
    <path d="M 8.957031 18.621094 C 6.019531 18.125 4.53125 16.46875 3.910156 13.160156 C 3.867188 12.953125 3.621094 12.785156 3.414062 12.828125 C 3.207031 12.867188 3.042969 13.117188 3.082031 13.324219 C 3.746094 17.007812 5.523438 18.867188 8.792969 19.449219 C 8.835938 19.449219 8.835938 19.449219 8.875 19.449219 C 9.082031 19.449219 9.25 19.324219 9.289062 19.117188 C 9.332031 18.867188 9.164062 18.660156 8.957031 18.621094 Z M 8.957031 18.621094"/>
</svg>

<svg xmlns="http://www.w3.org/2000/svg" width="32" height="32" viewBox="0 0 24 24">
    <path d="M21.414 20.691h-5.047c1.285-.515 2.27-1.246 3.02-2.128 3.058-.465 4.425-2.993 4.425-5.32 0-1.653-.917-3.032-2.109-3.274v-.04a.815.815 0 0 0-.246-.577.835.835 0 0 0-.582-.25H1.84a.82.82 0 0 0-.578.25.815.815 0 0 0-.246.578c.03 4.453.804 8.953 5.332 10.761H1.262c-.578 0-1.075.454-1.075 1.075 0 .496.329.867.91.992l5.255.375c.125 0 .25.082.289.207a1.2 1.2 0 0 0 1.078.66h6.867c.457 0 .871-.25 1.035-.66a.306.306 0 0 1 .29-.207l5.628-.375h.04c.581-.125.91-.496.91-.992 0-.578-.454-1.075-1.075-1.075zm.29-9.851c.702.25 1.241 1.242 1.241 2.402 0 1.613-.746 3.555-2.808 4.258l.101-.176c1.149-1.992 1.387-4.394 1.465-6.484zM1.84 9.93h19.035c-.04 5.586-1.242 10.761-9.516 10.761-8.277 0-9.476-5.175-9.52-10.761zm19.656 12l-5.543.375c-.414.039-.789.289-.996.66-.082.125-.207.207-.328.207h-6.91c-.125 0-.25-.082-.332-.207a1.284 1.284 0 0 0-.992-.66l-5.172-.375c-.207-.04-.207-.121-.207-.164 0-.125.12-.25.246-.25h20.195c.121 0 .246.125.246.25 0 .043 0 .125-.207.164zm0 0M11.07 3.434c-.62.62-.953 1.242-.953 1.906 0 .66.332 1.32.953 1.984a.375.375 0 0 0 .29.125.375.375 0 0 0 .288-.125.401.401 0 0 0 0-.578c-.457-.496-.703-.953-.703-1.41 0-.453.246-.91.703-1.32.622-.582.954-1.243.954-1.907 0-.66-.293-1.363-.954-1.984a.395.395 0 0 0-.578 0 .395.395 0 0 0 0 .578c.453.496.703.953.703 1.406 0 .457-.25.91-.703 1.325zm0 0M14.668 5.34c0 .66.332 1.32.953 1.984a.375.375 0 0 0 .29.125c.081 0 .206-.043.25-.125a.401.401 0 0 0 0-.578c-.458-.496-.704-.953-.704-1.41 0-.453.246-.91.703-1.32.66-.582.992-1.243.992-1.907 0-.703-.289-1.363-.953-1.984a.395.395 0 0 0-.578 0 .401.401 0 0 0 0 .578c.453.496.703.953.703 1.406 0 .457-.25.871-.703 1.325-.621.62-.953 1.242-.953 1.906zm0 0M5.98 5.34c0 .66.329 1.32.95 1.984a.387.387 0 0 0 .289.125c.086 0 .207-.043.25-.125a.401.401 0 0 0 0-.578c-.453-.496-.703-.953-.703-1.41 0-.453.25-.91.703-1.32.664-.582.992-1.243.992-1.907 0-.703-.29-1.363-.95-1.984a.4.4 0 0 0-.581 0 .401.401 0 0 0 0 .578c.457.496.703.953.703 1.406 0 .457-.246.871-.703 1.325-.621.62-.95 1.242-.95 1.906zm0 0"/>
    <path d="M8.957 18.621c-2.937-.496-4.426-2.152-5.047-5.46-.043-.208-.289-.376-.496-.333-.207.04-.371.29-.332.496.664 3.684 2.441 5.543 5.711 6.125h.082a.402.402 0 0 0 .414-.332.426.426 0 0 0-.332-.496zm0 0"/>
</svg>
